X:1
T:Honoro Patris, 887.8887
T:Honoro Patris, 887.8887
T:Joshua F. Drake, 2003
T:Public Domain Courtesy of the Cyber Hymnal™
C:Joshua F. Drake, 2003
Z:Public Domain
Z:Courtesy of the Cyber Hymnal™
%%score ( 1 2 ) ( 3 4 )
L:1/8
Q:1/4=108
M:4/4
K:C
V:1 treble 
V:2 treble 
V:3 bass 
V:4 bass 
V:1
 [EG]2 | G2 ([FA][DB]) [Cc]2 [Ec]2 | [Ec]2 [DB]2 [Cc]2 G2 | [FA]2 F2 [DG]2 E2 | F2 [DF]2 E2 [CE]2 | %5
 C2 [CF]2 E2 [B,D]2 | C6 [EG]2 | E2 (EF) G2 [EG]2 | A2 [DB]2 [Cc]2 G2 | A2 [DF]2 G2 [FA]2 | %10
 [CF]2 D2 [B,E]2 G2 | A2 B2 c2 [Ee]2 | d2 [Gd]2 [Gc]2 [DG]2 | [Cc]2 [CF]2 E2 [B,D]2 | C6 |] %15
V:2
 x2 | (ED) x6 | x6 (ED) | x2 F2 (ED) x2 | (CD) x E2 x3 | (CB,) x (C A,) x3 | C6 x2 | %7
 (ED) C2 (CD) x2 | (FE) x3 (EC) x | (DC) x (C E) x3 | x2 (DC) x (ED) x | (CD) (DF) (ED) x2 | %12
 (DF) x6 | x4 (CA,) x2 | C6 |] %15
V:3
 [C,G,]2 | G,2 ([C,F,][B,,G,]) A,2 ([C,C][D,B,]) | [C,G,]2 [G,,G,]2 [C,E,]2 ([C,E,][B,,F,]) | %3
 ([A,,F,][B,,G,]) ([C,A,][A,,F,]) G,2 (G,B,) | (A,B,) [G,,G,]2 [A,,C]2 (G,A,) | %5
 (A,G,) [A,,F,]2 (G,F,) (G,F,) | [C,E,]6 G,2 | ([C,G,][D,F,]) G,2 G,2 ([C,C][B,,D]) | %8
 (CA,) (G,F,) [A,,E,]2 ([C,E,][E,G,]) | F,[E,G,] ([D,A,][F,B,]) C2 (DC) | %10
 ([F,A,][E,C]) A,2 [E,^G,]2 =G,2 | (E,F,) (G,F,) [C,G,]2 C2 | (F,A,) (G,F,) [C,E,]2 (G,F,) | %13
 [C,E,]2 F,2 (G,F,) (G,F,) | [C,E,]6 |] %15
V:4
 x2 | (C,D,) x (A,, B,,) x3 | x8 | x4 (B,,A,,) C,2 | F,,2 x3 C,2 x | F,,2 x G,,2 G,,2 x | %6
 x6 (C,B,,) | x2 (C,D,) (E,D,) x2 | F,,2 G,,2 x4 | (F, x2 E, C,) C,2 x | x2 (F,D,) x (C,B,,) x | %11
 A,,2 G,,2 x (C,B,,) x | A,,2 B,,2 x B,,2 x | x2 (A,,F,,) G,,2 G,,2 | x6 |] %15

